X: 25
T: Castle, The
C: Sean Ryan
Z: chansherly212
S: https://thesession.org/tunes/273#setting54005
R: jig
M: 6/8
L: 1/8
K: Ador
|:"Am"cBA "G"BAG|"Am"AGE "G"DB,G,|"Am"A,G,A, EDE|"G"DEG AGE|
"Am"cBA "G"BdB|"Am"AGE "G"DB,G,|"Am"A,G,A, EDE|"Em"DB,G,"Am" A,2 B:|
|:"Am":cBA ~a3|"Am"bag edB|"G"GBd ~g3|"G"GBd cBA|
"Am"cBc "G"dcd|"F"ede "G"gab|"F"age "G"dBG|"Em"EFG "Am"A2 B:|

